modules/feathericon/icons/bar.svg

<svg width="24" height="24" viewBox="0 0 24 24" xmlns="http://www.w3.org/2000/svg"><path d="M3 16h18v2H3v-2zm0-5h18v2H3v-2zm0-5h18v2H3V6z" fill="#000" fill-rule="evenodd"/></svg>

<?xml version="1.0" encoding="UTF-8"?>
<svg width="24px" height="24px" viewBox="0 0 24 24" version="1.1" xmlns="http://www.w3.org/2000/svg" xmlns:xlink="http://www.w3.org/1999/xlink">
    <!-- Generator: sketchtool 52.2 (67145) - http://www.bohemiancoding.com/sketch -->
    <title>bar</title>
    <desc>Created with sketchtool.</desc>
    <g id="web-app" stroke="none" stroke-width="1" fill="none" fill-rule="evenodd">
        <g id="bar" fill="#000000">
            <path d="M3,16 L21,16 L21,18 L3,18 L3,16 Z M3,11 L21,11 L21,13 L3,13 L3,11 Z M3,6 L21,6 L21,8 L3,8 L3,6 Z" id="Shape"></path>
        </g>
    </g>
</svg>
